X: 194
T: Ringländer från Sundsjö
O: Sundsjö, Jämtland
Z: Transcribed to abc by Jon Magnusson 080512
R: Schottis
M: 4/4
L: 1/8
K: D
D>E F>G A2 A>G|B2 B>G A2 A2|D>F A>d f>a f>d|e>f e>c d>A F>E|
D>E F>G A2 A>G|B2 B>G A2 A2|D>F A>d f>a f>d|e>f e>c d4:|
|:f2a2 f>e d>c|B2B2 A4|f>e d2 f>e d>e|f2a2 f>e d2|
f2a2 f>e d>c|B2B2 A4|f>e d>e f>d (3 ABc|d2 f2 d4:|
(:musicend:)

(:music:)
